X:1
T:25 Lieder
T:Amor und Bachus
T:16. Amor und Bachus 
T:Corona Elisabeth Wilhelmine Schröter
T:Johannes Martin Miller
T:25 Lieder
T:NOTES TO TRANSCRIBER: 1. Full German text for the extra lyric verses of Der Wassermann is not yet available on Lieder.net: ask reviewer DanielR if you have any difficulty with the Gothic typeface. 2. Please transcribe into the Soprano clef, as published in the original IMSLP edition: the reviewer will convert staves to Treble clef before the score is published to the Lieder Corpus. 3. System breaks have been changed deliberately, to avoid split bars/measures. 
T:Creative Commons copyright waiver (CC0 1.0 Universal)
C:Corona Elisabeth Wilhelmine Schröter
Z:Johannes Martin Miller
Z:Creative Commons copyright waiver (CC0 1.0 Universal)
L:1/8
Q:1/4=116
M:2/4
K:F
V:1 alto1 nm="Singstimme\nVoice"
V:1
"^Mit Munterkeit, doch nicht zu geschwind" F G/>E/ F C | B A A G | c A B G | A F F/E/ D/C/ | %4
w: Durch die * dun- keln|Myr- ten- wäl- der|füh- ret ü- ber|Li- lien- fel- * der *|
 F3/2 E/ F/G/ A/=B/ | c d/=B/ c z | (f/e/) (d/c/) c d/e/ | f/e/ d/c/{c} _B B |{d} c B{d} c B | %9
w: A- mor sei- * ne *|Mäd- chen- * schaar;|Fröh- * lich * schwankt der *|Gott * der * Trau- ben,|aus den küh- len|
 c A{B} A G | (c/A/) (G/F/) B A | (A/G/){G} F/E/ F z |] %12
w: E- pheu- lau- be|her, * mit * der be-|rausch- * ten * Schaar.|

